X:498
T: Klosterha (203), S. 440f
N: T0386
O: Luxemburg
S: Singendes Volk, Esch-Alzette, 1937 posth.]
N: Straen, fff Witry, 17.1.1933
R: Nonnenklage]
M: 6/8
L: 1/16
K: G
D2 | G2G2G2G2F2G2 | A4F2D4
DD | A2A2A2A2B2c2 | B6z4
BB | B2B2B2B2B2e2 | d6d2c2
BA | G2G2G2F2E2F2 | G6z4

@@@ Tune index: 8552
